.gitbook/assets/Glob.svg

<svg xmlns="http://www.w3.org/2000/svg" width="404" height="251" fill="none" viewBox="0 0 404 251"><path fill="#65E4EA" d="M0 0h404v251H0V0Z"/><path fill="#65E4EA" stroke="#000" stroke-width="4" d="M163.007 146.221a9.762 9.762 0 0 0-.516.057 19.289 19.289 0 0 1-10.678-5.182c-7.739-7.397-8.016-19.668-.618-27.407 7.397-7.739 19.667-8.016 27.407-.619a19.306 19.306 0 0 1 5.943 12.665l.001.085a11.896 11.896 0 0 0 .182 1.761c.194 1.073.609 2.541 1.522 3.925.754 1.141 2.042 1.693 3.003 2.023.836.288 1.83.532 2.779.765l.64.158c2.446.612 4.641 1.301 6.095 2.69 6.354 6.074 6.582 16.15.508 22.504-6.075 6.355-16.15 6.582-22.505.508-1.172-1.12-1.929-2.919-2.799-5.205l-.102-.268c-.378-.995-.786-2.068-1.255-3.045-.512-1.065-1.166-2.165-2.082-3.041-1.779-1.7-3.939-2.233-5.522-2.372a11.534 11.534 0 0 0-2.003-.002Z"/><path fill="#65E4EA" stroke="#000" stroke-width="4" d="M230.447 149.136c-.005.204-.003.38.001.52a19.283 19.283 0 0 1-6.301 10.058c-8.187 6.897-20.417 5.852-27.315-2.336-6.898-8.187-5.852-20.416 2.335-27.314a19.31 19.31 0 0 1 13.231-4.546l.085.008c.101.009.24.02.41.028.338.015.807.02 1.36-.019 1.088-.078 2.592-.332 4.066-1.091 1.216-.626 1.903-1.848 2.335-2.767.376-.8.726-1.762 1.059-2.681l.226-.619c.872-2.366 1.793-4.474 3.331-5.77 6.723-5.664 16.764-4.806 22.428 1.917 5.664 6.723 4.806 16.765-1.917 22.429-1.24 1.045-3.11 1.603-5.477 2.222l-.277.073c-1.03.269-2.141.559-3.162.92-1.114.395-2.278.926-3.248 1.743-1.882 1.585-2.644 3.676-2.953 5.234-.156.79-.206 1.487-.217 1.991Z"/><path fill="#C1FCFF" d="M237.914 128.058a8.384 8.384 0 1 0-10.804-12.823 8.384 8.384 0 0 0 10.804 12.823Zm-22.742 23.695c4.882-4.113 5.505-11.405 1.392-16.287-4.113-4.883-11.406-5.506-16.288-1.393s-5.506 11.406-1.392 16.288c4.113 4.882 11.405 5.506 16.288 1.392Z"/><path fill="#65E4EA" stroke="#000" stroke-width="4" d="M200.984 131.517c-.219.221-.392.411-.518.554a26.682 26.682 0 0 1-15.98 4.149c-14.782-.871-26.058-13.56-25.187-28.342.871-14.781 13.56-26.057 28.341-25.186a26.706 26.706 0 0 1 17.62 8.048l.083.096a15.156 15.156 0 0 0 1.642 1.572c1.092.897 2.715 1.983 4.739 2.573 1.53.446 3.141-.027 4.401-.52 1.077-.42 2.274-1.018 3.451-1.606l.81-.403c3.034-1.499 6.043-2.794 8.954-2.623 12.206.72 21.517 11.197 20.798 23.403-.72 12.205-11.197 21.517-23.403 20.798-2.365-.14-4.848-1.417-7.708-2.99l-.335-.184c-1.261-.695-2.59-1.428-3.895-2.008-1.421-.633-2.963-1.157-4.549-1.25-3.095-.182-5.623 1.068-7.297 2.252a15.07 15.07 0 0 0-1.967 1.667Z"/><path fill="#C1FCFF" d="M227.333 117.348c6.227.367 11.573-4.384 11.94-10.611.367-6.227-4.384-11.573-10.611-11.94-6.227-.367-11.573 4.383-11.94 10.611-.367 6.227 4.384 11.573 10.611 11.94Zm-44.198 2.076c8.586.506 15.956-6.044 16.462-14.63.506-8.586-6.044-15.957-14.63-16.463-8.585-.506-15.956 6.044-16.462 14.631-.506 8.586 6.044 15.956 14.63 16.462Z"/></svg>

<svg width="404" height="251" viewBox="0 0 404 251" fill="none" xmlns="http://www.w3.org/2000/svg">
<path d="M0 0L404 0L404 251L0 251L0 0Z" fill="#65E4EA"/>
<path d="M163.007 146.221C162.803 146.238 162.63 146.259 162.491 146.278C158.612 145.733 154.863 144.011 151.813 141.096C144.074 133.699 143.797 121.428 151.195 113.689C158.592 105.95 170.862 105.673 178.602 113.07C182.235 116.543 184.223 121.086 184.545 125.735C184.545 125.759 184.546 125.788 184.546 125.82C184.548 125.922 184.552 126.061 184.563 126.23C184.584 126.568 184.63 127.035 184.728 127.581C184.922 128.654 185.337 130.122 186.25 131.506C187.004 132.647 188.292 133.199 189.253 133.529C190.089 133.817 191.083 134.061 192.032 134.294C192.248 134.347 192.462 134.4 192.672 134.452C195.118 135.064 197.313 135.753 198.767 137.142C205.121 143.216 205.349 153.292 199.275 159.646C193.2 166.001 183.125 166.228 176.77 160.154C175.598 159.034 174.841 157.235 173.971 154.949C173.937 154.86 173.903 154.771 173.869 154.681C173.491 153.686 173.083 152.613 172.614 151.636C172.102 150.571 171.448 149.471 170.532 148.595C168.753 146.895 166.593 146.362 165.01 146.223C164.208 146.152 163.509 146.177 163.007 146.221Z" fill="#65E4EA" stroke="black" stroke-width="4"/>
<path d="M230.447 149.136C230.442 149.34 230.444 149.516 230.448 149.656C229.489 153.454 227.374 156.995 224.147 159.714C215.96 166.611 203.73 165.566 196.832 157.378C189.934 149.191 190.98 136.962 199.167 130.064C203.011 126.826 207.742 125.338 212.398 125.518C212.423 125.521 212.451 125.523 212.483 125.526C212.584 125.535 212.723 125.546 212.893 125.554C213.231 125.569 213.7 125.574 214.253 125.535C215.341 125.457 216.845 125.203 218.319 124.444C219.535 123.818 220.222 122.596 220.654 121.677C221.03 120.877 221.38 119.915 221.713 118.996C221.789 118.787 221.865 118.58 221.939 118.377C222.811 116.011 223.732 113.903 225.27 112.607C231.993 106.943 242.034 107.801 247.698 114.524C253.362 121.247 252.504 131.289 245.781 136.953C244.541 137.998 242.671 138.556 240.304 139.175C240.213 139.199 240.12 139.224 240.027 139.248C238.997 139.517 237.886 139.807 236.865 140.168C235.751 140.563 234.587 141.094 233.617 141.911C231.735 143.496 230.973 145.587 230.664 147.145C230.508 147.935 230.458 148.632 230.447 149.136Z" fill="#65E4EA" stroke="black" stroke-width="4"/>
<path d="M237.914 128.058C241.455 125.075 241.907 119.786 238.924 116.245C235.941 112.704 230.651 112.251 227.11 115.235C223.569 118.218 223.117 123.507 226.101 127.048C229.084 130.589 234.373 131.041 237.914 128.058Z" fill="#C1FCFF"/>
<path d="M215.172 151.753C220.054 147.64 220.677 140.348 216.564 135.466C212.451 130.583 205.158 129.96 200.276 134.073C195.394 138.186 194.77 145.479 198.884 150.361C202.997 155.243 210.289 155.867 215.172 151.753Z" fill="#C1FCFF"/>
<path d="M200.984 131.517C200.765 131.738 200.592 131.928 200.466 132.071C195.871 135.003 190.346 136.565 184.486 136.22C169.704 135.349 158.428 122.66 159.299 107.878C160.17 93.0966 172.859 81.8206 187.64 82.6917C194.588 83.1011 200.757 86.1185 205.26 90.7399C205.283 90.7663 205.31 90.7986 205.343 90.836C205.428 90.9321 205.547 91.0631 205.698 91.22C205.999 91.533 206.433 91.9537 206.985 92.4078C208.077 93.305 209.7 94.3914 211.724 94.9811C213.254 95.4268 214.865 94.9538 216.125 94.4613C217.202 94.0405 218.399 93.4428 219.576 92.8551C219.848 92.7193 220.118 92.5841 220.386 92.4517C223.42 90.953 226.429 89.6577 229.34 89.8293C241.546 90.5486 250.857 101.026 250.138 113.232C249.418 125.437 238.941 134.749 226.735 134.03C224.37 133.89 221.887 132.613 219.027 131.04C218.916 130.979 218.804 130.917 218.692 130.856C217.431 130.161 216.102 129.428 214.797 128.848C213.376 128.215 211.834 127.691 210.248 127.598C207.153 127.416 204.625 128.666 202.951 129.85C202.105 130.449 201.441 131.057 200.984 131.517Z" fill="#65E4EA" stroke="black" stroke-width="4"/>
<path d="M227.333 117.348C233.56 117.715 238.906 112.964 239.273 106.737C239.64 100.51 234.889 95.1638 228.662 94.7968C222.435 94.4298 217.089 99.1805 216.722 105.408C216.355 111.635 221.106 116.981 227.333 117.348Z" fill="#C1FCFF"/>
<path d="M183.135 119.424C191.721 119.93 199.091 113.38 199.597 104.794C200.103 96.2077 193.553 88.8372 184.967 88.3312C176.382 87.8252 169.011 94.3754 168.505 102.962C167.999 111.548 174.549 118.918 183.135 119.424Z" fill="#C1FCFF"/>
</svg>
